X:1
T:James Gibb editions
T:Caro mea - Guerrero
T:#
%%score [ 1 2 3 4 ]
L:1/8
Q:1/4=120
M:4/4
K:C
V:1 treble nm="Soprano" snm="S"
V:2 treble nm="Alto" snm="A"
V:3 treble-8 nm="Tenor" snm="T"
V:4 bass nm="Bass" snm="B"
V:1
"^Caro mea""^Francisco Guerrero\n(1528-99)""^John 6:56-57" z8 | z4 A4- | A2 B2 c4 | A2 e2 c2 d2 | %4
w: |Ca\-|* ro me-|a ve- re est|
 (e4 d3 c | B4) A4 | z4 A4 | B2 c4 A2 |[M:4/4] e6 c2 | d2 (e4 d2) | e8- | e4 z4 | z4 A4 | %13
w: ci\- * *|* bus,|ca-|ro me- a|ve- re|est ci\- *|bus,||et|
 d2 d2 c2 A2- | A2 c2 B2 B2 | A4 A4- | A4 z2 A2 | d2 d2 c2 A2 | (B2 GA Bc d2) | A2 (d4 cB | %20
w: san- guis me- us|* ve- re est|po- tus,|* et|san- guis me- us|ve- re * * * *|est po\- * *|
 cd e4 d2) | e2 g3 f e2 | (d2 f3 e d2- | d2 ^c2) d4- | d4 z4 | z8 | z4 z2 A2- | A2 A2 (c3 d | %28
w: |tus, ve- re est|po\- * * *|* * tus.|||Qui|* man- du\- *|
 e2 c2 d2 e2 | f4 e4 | z2 A4 A2 | c2 A2 B2 ^c2 | d4 ^c4 | z2 e2 e2 e2 | B2 d2 (cBAG | A3 A G2 c2 | %36
w: * cat me- am|car- nem,|qui man-|du- cat me- am|car- nem,|et bi- bit|me- um san\- * * *|* gui- nem, me-|
 B2 A4 ^G2 | A2 c2 c3 d | e4) A4 | A8 | z4 e4 | f2 d4 ^c2 | d4 A4 | G4 A4 | c4 z2 d2 | e2 c4 BA | %46
w: um san- gui-|nem, in me *|* ma-|net|et|e- go in|il- lo,|et e-|go, et|e- go in *|
 Bc d2) G2 A2 | z2[Q:1/4=119] B2[Q:1/4=118] c2[Q:1/4=116] A2 | %48
w: * * * il- lo,|et e- go|
[Q:1/4=115] B2[Q:1/4=113] (A4[Q:1/4=111] G2) |[Q:1/4=108] A8- |[Q:1/4=104] A8 |[Q:1/4=102] A16 |] %52
w: in il\- *|lo.|||
V:2
 D6 E2 | F4 D2 A2 | F2 G2 (A3 G | F2 E2 F4) | E2 G2 F2 A2- | A2 ^G2 A2 A,2 | B,2 C4 A,2 | E6 F2 | %8
w: Ca- ro|me- a ve-|re est ci\- *||bus, ve- re est|* ci- bus, ca-|ro me- a|ve- re|
[M:4/4] (GFED C2) (F2- | F2 E2 F4) | E8 | z2 E2 A2 A2 | G2 E2 F2 (D2- | DEFG AB c2- | cB A4 ^G2) | %15
w: est * * * * ci\-||bus,|et san- guis|me- us ve- re|||
 A2 E2 F4 | z2 E2 A2 A2 | F2 D2 E2 ^F2 | (G3 F E2) (DC | DE F4) (ED | E4) z2 D2 | G6 G2 | %22
w: est po- tus,|et san- guis|me- us ve- re|est * * po\- *|* * * tus, *|* et|san- guis|
 F2 D2 F2 G2 | A2 (A4 ^F2) | ^F4 z4 | z2 D2 D2 F2- | F2 G2 A2 E2 | (F2 ED EC F2) | E4 z2 A2- | %29
w: me- us ve- re|est po\- *|tus.|Qui man- du\-|* cat me- am|car\- * * * * *|nem, qui|
 A2 A2 (cBAG | F2) E2 F2 E2 | (CDE^F G4) | A4 z2 A2 | A2 A2 E2 A2 | G2 F2 E2 C2 | C2 C2 B,2 C2 | %36
w: * man- du\- * * *|* cat me- am|car\- * * * *|nem, et|bi- bit me- um|san- gui- nem, et|bi- bit me- um|
 D2 A,2 E4 | z2 A2 A4 | (G4 F4) | E4 z2 C2 | D2 F2 E2 (A2- | AG F2 E4) | D4 z2 A2 | _B2 G4 ^F2 | %44
w: san- gui- nem,|in me|ma\- *|net et|e- go in il\-||lo, et|e- go in|
 G6 D2 | z2 G2 (G3 F | E2) D2 E2 C2 | B,4 z2 E2 | F4 D2 E2 | (C2 DE FD E2 | F4) E4- | E16 |] %52
w: il- lo,|et e\- *|* go in il-|lo, et|e- go in|il\- * * * * *|* lo.||
V:3
 z8 | z8 | z8 | z2 A4 B2 | c4 A4 | e4 c2 d2 | (e3 d cA d2- | d2 cB A4 |[M:4/4][K:treble-8] B4 A4 | %9
w: |||Ca- ro|me- a|ve- re est|ci\- * * * *||* bus,|
 z8 | A6 B2 | c4 A2 d2 | B2 ^c2 (d3 c | B4) A4 | z2 A2 e2 e2 | c2 A2 c2 d2 | cBcd e2) f2 | d4 z4 | %18
w: |ca- ro|me- a ve-|re est ci\- *|* bus,|et san- guis|me- us ve- re|est * * * * po-|tus,|
 z2 d2 g2 g2 | f2 d2 f2 g2 | a4 f4 | e2 d4 e2 | f4 (d4 | e4) d4 | z2 A4 A2 | c2 A2 B2 c2 | d4 c4 | %27
w: et san- guis|me- us ve- re|est po-|tus, ve- re|est po\-|* tus.|Qui man-|du- cat me- am|car- nem,|
 z8 | z8 | z4 A4- | A2 A2 (c3 d | e2) c2 d2 e2 | f4 e4- | e4 z4 | z8 | e4 e2 e2 | B2 d2 c2 B2 | %37
w: ||qui|* man- du\- *|* cat me- am|car- nem,|||et bi- bit|me- um san- gui-|
 A2 e2 f4 | (e4 d4- | d2 ^cB) c2 e2 | f2 d4 ^c2 | d4 A4 | z2 d2 d4- | d2 d2 d4 | (c3 d ef g2- | %45
w: nem, in me|ma\- *|* * * net et|e- go in|il- lo,|et e\-|* go in|il\- * * * *|
 gf e2 d4) | G4 z2 e2 | f2 e4 c2 | (d3 c B4) | A4 z2 A2- | A2 (d4 ^cB) | ^c16 |] %52
w: |lo, et|e- go in|il\- * *|lo, in|* il\- * *|lo.|
V:4
 z8 | z8 | z8 | z8 | z4 D,4 | E,4 F,4 | E,2 A,4 F,2 | G,2 (A,3 G, F,2) |[M:4/4] E,4 z2 A,2 | %9
w: ||||Ca-|ro me-|a ve- re|est ci\- * *|bus, ca-|
 B,2 C2 A,2 (D2- | D2 CB, C2) G,2 | (A,3 G, F,2 D,2) | E,4 D,4 | z8 | z4 E,4 | A,2 A,2 F,2 D,2 | %16
w: ro me- a ve\-|* * * * re|est * * *|ci- bus,||et|san- guis me- us|
 A,3 B, C2 (D2- | DC B,2 A,4) | G,8 | z8 | A,4 D2 D2 | C2 G,2 B,2 C2 | D4 B,4 | A,4 z2 D,2- | %24
w: ve- re est po\-||tus,||et san- guis|me- us ve- re|est po-|tus. Qui|
 D,2 D,2 (=F,3 G, | A,2) F,2 G,2 A,2 | _B,4 A,4 | z2 A,4 A,2 | C2 A,2 B,2 C2 | D4 C4 | %30
w: * man- du\- *|* cat me- am|car- nem,|qui man-|du- cat me- am|car- nem,|
 z2 C2 F,2 A,2- | A,2 A,2 G,2 E,2 | D,4 A,4- | A,4 z4 | z4 A,4 | A,2 A,2 E,2 A,2 | G,2 F,2 E,4 | %37
w: qui man- du\-|* cat me- am|car- nem,||et|bi- bit me- um|san- gui- nem,|
 z2 A,2 F,4 | (C,4 D,4) | A,8 | z8 | z4 z2 A,2 | _B,2 G,4 ^F,2 | G,4 D,2 D2 | E2 C4 B,2 | C4 G,4 | %46
w: in me|ma\- *|net||et|e- go in|il- lo, et|e- go in|il- lo,|
 z2 B,2 C2 A,2- | A,2 ^G,2 A,4 | D,4 z2 E,2 | F,2 D,4 ^C,2 | D,4 A,4- | A,16 |] %52
w: et e- go|* in il-|lo, et|e- go in|il- lo.||

